svgs/light/file-binary.svg

<svg xmlns="http://www.w3.org/2000/svg" viewBox="0 0 384 512"><!-- Font Awesome Pro 6.0.0-alpha2 by @fontawesome - https://fontawesome.com License - https://fontawesome.com/license (Commercial License) --><path d="M365.256 125.254L258.746 18.746C246.744 6.742 230.465 0 213.49 0H64C28.654 0 0 28.654 0 64V448C0 483.346 28.654 512 64 512H320C355.348 512 384 483.346 384 448V170.51C384 153.535 377.258 137.258 365.256 125.254ZM224 34.076C228.477 35.643 232.666 37.922 236.119 41.375L342.627 147.879C346.08 151.332 348.357 155.523 349.924 160H240C231.188 160 224 152.828 224 144V34.076ZM352 448C352 465.645 337.645 480 320 480H64C46.355 480 32 465.645 32 448V64C32 46.355 46.355 32 64 32H192V144C192 170.469 213.531 192 240 192H352V448ZM224 272C224 280.844 231.156 288 240 288H256V384H240C231.156 384 224 391.156 224 400S231.156 416 240 416H304C312.844 416 320 408.844 320 400S312.844 384 304 384H288V272C288 263.156 280.844 256 272 256H240C231.156 256 224 263.156 224 272ZM144 256H112C85.531 256 64 277.531 64 304V368C64 394.469 85.531 416 112 416H144C170.469 416 192 394.469 192 368V304C192 277.531 170.469 256 144 256ZM160 368C160 376.828 152.812 384 144 384H112C103.188 384 96 376.828 96 368V304C96 295.172 103.188 288 112 288H144C152.812 288 160 295.172 160 304V368Z"/></svg>

<svg xmlns="http://www.w3.org/2000/svg" viewBox="0 0 384 512"><!--! Font Awesome Pro 6.3.0 by @fontawesome - https://fontawesome.com License - https://fontawesome.com/license (Commercial License) Copyright 2023 Fonticons, Inc. --><path d="M365.3 125.3l-106.5-106.5C246.7 6.742 230.5 0 213.5 0H64C28.65 0 0 28.65 0 64l.0065 384c0 35.35 28.65 64 64 64H320c35.35 0 64-28.65 64-64V170.5C384 153.5 377.3 137.3 365.3 125.3zM224 34.08c4.477 1.566 8.666 3.846 12.12 7.299l106.5 106.5C346.1 151.3 348.4 155.5 349.9 160H240C231.2 160 224 152.8 224 144V34.08zM352 448c0 17.64-14.36 32-32 32H64c-17.64 0-32-14.36-32-32V64c0-17.64 14.36-32 32-32h128v112C192 170.5 213.5 192 240 192H352V448zM224 272C224 280.8 231.2 288 240 288H256v96h-16c-8.844 0-16 7.156-16 16s7.156 16 16 16h64c8.844 0 16-7.156 16-16S312.8 384 304 384H288V272C288 263.2 280.8 256 272 256h-32C231.2 256 224 263.2 224 272zM144 256h-32C85.53 256 64 277.5 64 304v64C64 394.5 85.53 416 112 416h32c26.47 0 48-21.53 48-48v-64C192 277.5 170.5 256 144 256zM160 368C160 376.8 152.8 384 144 384h-32C103.2 384 96 376.8 96 368v-64C96 295.2 103.2 288 112 288h32C152.8 288 160 295.2 160 304V368z"/></svg>
